X:81
%%etbk:tnset id:28,pos:3,rep:3x,ant:
%%etbk:wsite http://www.thesession.org/tunes/display/669
%%etbk:pldat 2016-09-16T17:23,2016-09-13T16:50,2016-09-11T16:32,2016-08-03T17:39,2016-03-31T17:19,2015-06-11T19:18,2015-03-24T17:11,2014-11-22T16:24,2014-09-13T14:02,2014-06-07T14:53,2014-05-06T17:37,2014-05-02T16:39,2014-04-01T17:45,2014-03-22T15:52,2014-02-08T14:10,2013-11-27T18:21,2013-11-23T15:31,2013-11-09T15:03,2013-11-07T15:16
T: Girl Who Broke My Heart, The
Z: Piano Box Version by Martin Fleischmann
H: Created 2013-02-19 /  Last Modified 2013-02-19
M: 4/4
L: 1/8
R: reel
K: Gmix
!5!dc |: !3!B!1!G!3!F!1!D !2!EE!1!C!2!E | !1!D2!4!G!3!^F !1!GAB!4!c | !3!d2!5!^fd !2!c!1!A!3!G!2!F | !1!D!3!FF!2!E !1!F2 !5!dc |
!3!B!1!G!3!FD !2!EE!1!CE | !1!D2!4!G!3!^F !1!GAB!4!c | !3!d2!5!^fd !2!c!1!A!3!G!2!F | !1!D2!3!G!2!^F !1!G2 :||
|: !1!G2!2!B!3!d !5!gdB!1!G | !1!FF!2!A!3!c !5!fcA!1!F | !1!G2Bd gdB!1!G | !3!cccd !3!c!1!A!2!^F!4!A |
!1!G2Bd gdBG | !1!F2Ac fcAF | !1!GA!3!B!5!d !4!c!2!A!1!G!2!F | !1!D2!3!G!2!^F !3!G2 :||


